Numix/scalable/status/touchpad-disabled-symbolic.svg

<?xml version="1.0" encoding="UTF-8" standalone="no"?>
<svg
   xmlns:dc="http://purl.org/dc/elements/1.1/"
   xmlns:cc="http://creativecommons.org/ns#"
   xmlns:rdf="http://www.w3.org/1999/02/22-rdf-syntax-ns#"
   xmlns:svg="http://www.w3.org/2000/svg"
   xmlns="http://www.w3.org/2000/svg"
   xmlns:sodipodi="http://sodipodi.sourceforge.net/DTD/sodipodi-0.dtd"
   xmlns:inkscape="http://www.inkscape.org/namespaces/inkscape"
   width="16"
   viewBox="0 0 16 16"
   height="16"
   id="svg2"
   version="1.1"
   inkscape:version="0.91 r"
   sodipodi:docname="touchpad-disabled-symbolic.svg">
  <metadata
     id="metadata14">
    <rdf:RDF>
      <cc:Work
         rdf:about="">
        <dc:format>image/svg+xml</dc:format>
        <dc:type
           rdf:resource="http://purl.org/dc/dcmitype/StillImage" />
        <dc:title />
      </cc:Work>
    </rdf:RDF>
  </metadata>
  <defs
     id="defs12" />
  <sodipodi:namedview
     pagecolor="#ffffff"
     bordercolor="#666666"
     borderopacity="1"
     objecttolerance="10"
     gridtolerance="10"
     guidetolerance="10"
     inkscape:pageopacity="0"
     inkscape:pageshadow="2"
     inkscape:window-width="1920"
     inkscape:window-height="1056"
     id="namedview10"
     showgrid="true"
     inkscape:zoom="32"
     inkscape:cx="10.288949"
     inkscape:cy="4.9194664"
     inkscape:window-x="0"
     inkscape:window-y="24"
     inkscape:window-maximized="1"
     inkscape:current-layer="svg2">
    <inkscape:grid
       type="xygrid"
       id="grid4136" />
  </sodipodi:namedview>
  <path
     style="color:#000000;font-style:normal;font-variant:normal;font-weight:normal;font-stretch:normal;font-size:medium;line-height:normal;font-family:sans-serif;text-indent:0;text-align:start;text-decoration:none;text-decoration-line:none;text-decoration-style:solid;text-decoration-color:#000000;letter-spacing:normal;word-spacing:normal;text-transform:none;direction:ltr;block-progression:tb;writing-mode:lr-tb;baseline-shift:baseline;text-anchor:start;white-space:normal;clip-rule:nonzero;display:inline;overflow:visible;visibility:visible;opacity:0.4;isolation:auto;mix-blend-mode:normal;color-interpolation:sRGB;color-interpolation-filters:linearRGB;solid-color:#000000;solid-opacity:1;fill:#bebebe;fill-opacity:1;fill-rule:nonzero;stroke:none;stroke-width:1;stroke-linecap:square;stroke-linejoin:miter;stroke-miterlimit:4;stroke-dasharray:none;stroke-dashoffset:0;stroke-opacity:1;color-rendering:auto;image-rendering:auto;shape-rendering:auto;text-rendering:auto;enable-background:accumulate"
     d="M 4 2 C 2.9006486 2 2 2.9006486 2 4 L 2 12 C 2 13.099351 2.9006486 14 4 14 L 12 14 C 13.099351 14 14 13.099351 14 12 L 14 7 L 13 7 L 13 10 L 3 10 L 3 4 C 3 3.4373514 3.4373514 3 4 3 L 9 3 L 9 2 L 4 2 z M 3 11 L 7 11 L 7 13 L 4 13 C 3.4373514 13 3 12.562649 3 12 L 3 11 z M 9 11 L 13 11 L 13 12 C 13 12.562649 12.562649 13 12 13 L 9 13 L 9 11 z "
     id="rect4138" />
  <path
     style="color:#bebebe;display:inline;overflow:visible;visibility:visible;fill:#bebebe;fill-opacity:1;stroke:none;stroke-width:2;marker:none"
     sodipodi:nodetypes="ccccccccccccccccc"
     id="path3761-2-3-5-4-8-9-8-0-1-7-8"
     d="m 10,0.99999999 1.5,0 L 12.5,2 l 1,-1.00000001 1.5,0 L 15,2.5 l -1,1 1,1 0,1.5 -1.5,0 -1,-1 -1,1 -1.5,0 0,-1.5 1,-1 -1,-1 z"
     inkscape:connector-curvature="0" />
</svg>

<svg xmlns="http://www.w3.org/2000/svg" viewBox="0 0 16 16">
 <path d="m 4 2 c -1.099 0 -2 0.901 -2 2 l 0 8 c 0 1.099 0.901 2 2 2 l 8 0 c 1.099 0 2 -0.901 2 -2 l 0 -5 l -1 0 l 0 3 l -10 0 l 0 -6 c 0 -0.563 0.437 -1 1 -1 l 5 0 l 0 -1 l -5 0 z m -1 9 l 4 0 l 0 2 l -3 0 c -0.563 0 -1 -0.437 -1 -1 l 0 -1 z m 6 0 l 4 0 l 0 1 c 0 0.563 -0.437 1 -1 1 l -3 0 l 0 -2 z" mix-blend-mode="normal" isolation="auto" white-space="normal" solid-opacity="1" solid-color="#000000" style="visibility:visible;shape-rendering:auto;color-interpolation-filters:linearRGB;fill:#bebebe;opacity:0.4;image-rendering:auto;fill-opacity:1;stroke:none;display:inline;color:#000;fill-rule:nonzero;color-rendering:auto;color-interpolation:sRGB"/>
 <path d="m 10 1 1.5 0 l 1 1 l 1 -1 1.5 0 l 0 1.5 l -1 1 1 1 0 1.5 -1.5 0 -1 -1 -1 1 -1.5 0 0 -1.5 1 -1 -1 -1 z" style="visibility:visible;fill:#bebebe;fill-opacity:1;stroke:none;display:inline;color:#bebebe"/>
</svg>
